icons/svg/shaders/h_topo_sand.svg

<?xml version="1.0" encoding="UTF-8" standalone="no"?>
<svg
   xmlns:dc="http://purl.org/dc/elements/1.1/"
   xmlns:cc="http://creativecommons.org/ns#"
   xmlns:rdf="http://www.w3.org/1999/02/22-rdf-syntax-ns#"
   xmlns:svg="http://www.w3.org/2000/svg"
   xmlns="http://www.w3.org/2000/svg"
   xmlns:sodipodi="http://sodipodi.sourceforge.net/DTD/sodipodi-0.dtd"
   xmlns:inkscape="http://www.inkscape.org/namespaces/inkscape"
   width="24"
   height="24"
   viewBox="0 0 24 24"
   fill="none"
   version="1.1"
   id="svg67"
   sodipodi:docname="h_topo_sand.svg"
   inkscape:version="0.92.5 (2060ec1f9f, 2020-04-08)">
  <metadata
     id="metadata71">
    <rdf:RDF>
      <cc:Work
         rdf:about="">
        <dc:format>image/svg+xml</dc:format>
        <dc:type
           rdf:resource="http://purl.org/dc/dcmitype/StillImage" />
      </cc:Work>
    </rdf:RDF>
  </metadata>
  <sodipodi:namedview
     pagecolor="#ffffff"
     bordercolor="#666666"
     borderopacity="1"
     objecttolerance="10"
     gridtolerance="10"
     guidetolerance="10"
     inkscape:pageopacity="0"
     inkscape:pageshadow="2"
     inkscape:window-width="1920"
     inkscape:window-height="1014"
     id="namedview69"
     showgrid="false"
     inkscape:zoom="9.8333333"
     inkscape:cx="12"
     inkscape:cy="12"
     inkscape:window-x="1920"
     inkscape:window-y="0"
     inkscape:window-maximized="1"
     inkscape:current-layer="svg67" />
  <path
     style="fill:#ae9f8d"
     inkscape:connector-curvature="0"
     id="path4"
     d="M 17.012,17.989 H 16 V 19 h 1.012 z" />
  <path
     style="fill:#ae9f8d"
     inkscape:connector-curvature="0"
     id="path6"
     d="M 10,3 H 8.986 V 4.01099 H 10 Z" />
  <path
     style="fill:#ae9f8d"
     inkscape:connector-curvature="0"
     id="path8"
     d="m 21,14 h -1.014 v 1.011 H 21 Z" />
  <path
     style="fill:#ae9f8d"
     inkscape:connector-curvature="0"
     id="path10"
     d="m 4.00001,15 h -1.012 v 1.011 h 1.012 z" />
  <path
     style="fill:#ae9f8d"
     inkscape:connector-curvature="0"
     id="path12"
     d="M 11.014,12 H 10 v 1.011 h 1.014 z" />
  <path
     style="fill:#ae9f8d"
     inkscape:connector-curvature="0"
     id="path14"
     d="M 7.00001,11 H 5.986 v 1.011 h 1.01401 z" />
  <path
     style="fill:#ae9f8d"
     inkscape:connector-curvature="0"
     id="path16"
     d="M 23.014,21.989 H 22 V 23 h 1.014 z" />
  <path
     style="fill:#ae9f8d"
     inkscape:connector-curvature="0"
     id="path18"
     d="m 8.00001,16 h -1.012 v 1.011 h 1.012 z" />
  <path
     style="fill:#ae9f8d"
     inkscape:connector-curvature="0"
     id="path20"
     d="M 23,3 H 21.986 V 4.01099 H 23 Z" />
  <path
     style="fill:#ae9f8d"
     inkscape:connector-curvature="0"
     id="path22"
     d="M 16,11.989 H 14.986 V 13 H 16 Z" />
  <path
     style="fill:#ae9f8d"
     inkscape:connector-curvature="0"
     id="path24"
     d="M 14,16.989 H 12.988 V 18 H 14 Z" />
  <path
     style="fill:#ae9f8d"
     inkscape:connector-curvature="0"
     id="path26"
     d="M 7.00001,22.989 H 5.986 V 24 h 1.01401 z" />
  <path
     style="fill:#ae9f8d"
     inkscape:connector-curvature="0"
     id="path28"
     d="M 6.00001,1 H 4.986 v 1.01099 h 1.01401 z" />
  <path
     style="fill:#ae9f8d"
     inkscape:connector-curvature="0"
     id="path30"
     d="M 11,21 H 9.986 v 1.011 H 11 Z" />
  <path
     style="fill:#ae9f8d"
     inkscape:connector-curvature="0"
     id="path32"
     d="M 12.012,5.98901 H 11 V 7 h 1.012 z" />
  <path
     style="fill:#ae9f8d"
     inkscape:connector-curvature="0"
     id="path34"
     d="M 23.014,11 H 22 v 1.011 h 1.014 z" />
  <path
     style="fill:#ae9f8d"
     inkscape:connector-curvature="0"
     id="path36"
     d="M 18.014,0 H 17 v 1.01099 h 1.014 z" />
  <path
     style="fill:#ae9f8d"
     inkscape:connector-curvature="0"
     id="path38"
     d="M 20,6.98901 H 18.988 V 8 H 20 Z" />
  <path
     style="fill:#ae9f8d"
     inkscape:connector-curvature="0"
     id="path40"
     d="M 15.014,22 H 14 v 1.011 h 1.014 z" />
  <path
     style="fill:#ae9f8d"
     inkscape:connector-curvature="0"
     id="path42"
     d="M 5.00001,19 H 3.986 v 1.011 h 1.01401 z" />
  <path
     style="fill:#ae9f8d"
     inkscape:connector-curvature="0"
     id="path44"
     d="M 3.00001,3.98901 H 1.986 V 5 h 1.01401 z" />
  <path
     style="fill:#ae9f8d"
     inkscape:connector-curvature="0"
     id="path46"
     d="M 15.012,8 H 14 v 1.01102 h 1.012 z" />
  <path
     style="fill:#ae9f8d"
     inkscape:connector-curvature="0"
     id="path48"
     d="m 21,19 h -1.014 v 1.011 H 21 Z" />
  <path
     style="fill:#ae9f8d"
     inkscape:connector-curvature="0"
     id="path50"
     d="m 1.00001,13 h -1.0119958 v 1.011 H 1.00001 Z" />
  <path
     style="fill:#ae9f8d"
     inkscape:connector-curvature="0"
     id="path52"
     d="M 2.01402,20.989 H 1.00001 V 22 h 1.01401 z" />
  <path
     style="fill:#ae9f8d"
     inkscape:connector-curvature="0"
     id="path54"
     d="M 5.00001,7.98901 H 3.986 V 9 h 1.01401 z" />
  <path
     style="fill:#ae9f8d"
     inkscape:connector-curvature="0"
     id="path56"
     d="M 11,16.989 H 9.986 V 18 H 11 Z" />
  <path
     style="fill:#ae9f8d"
     inkscape:connector-curvature="0"
     id="path58"
     d="M 17,3.98901 H 15.988 V 5 H 17 Z" />
  <defs
     id="defs65">
    <clipPath
       id="clip0">
      <path
         d="M0 0H24V24H0V0Z"
         fill="white"
         id="path62" />
    </clipPath>
  </defs>
</svg>

<svg width="24" height="24" viewBox="0 0 24 24" fill="none" xmlns="http://www.w3.org/2000/svg">
<g clip-path="url(#clip0)">
<path opacity="0.344" d="M24 0H7.62939e-06V24H24V0Z" fill="#FFE1BA"/>
<path d="M17.012 17.989H16V19H17.012V17.989Z" fill="#AE9F8D"/>
<path d="M10 3H8.986V4.01099H10V3Z" fill="#AE9F8D"/>
<path d="M21 14H19.986V15.011H21V14Z" fill="#AE9F8D"/>
<path d="M4.00001 15H2.98801V16.011H4.00001V15Z" fill="#AE9F8D"/>
<path d="M11.014 12H10V13.011H11.014V12Z" fill="#AE9F8D"/>
<path d="M7.00001 11H5.986V12.011H7.00001V11Z" fill="#AE9F8D"/>
<path d="M23.014 21.989H22V23H23.014V21.989Z" fill="#AE9F8D"/>
<path d="M8.00001 16H6.98801V17.011H8.00001V16Z" fill="#AE9F8D"/>
<path d="M23 3H21.986V4.01099H23V3Z" fill="#AE9F8D"/>
<path d="M16 11.989H14.986V13H16V11.989Z" fill="#AE9F8D"/>
<path d="M14 16.989H12.988V18H14V16.989Z" fill="#AE9F8D"/>
<path d="M7.00001 22.989H5.986V24H7.00001V22.989Z" fill="#AE9F8D"/>
<path d="M6.00001 1H4.986V2.01099H6.00001V1Z" fill="#AE9F8D"/>
<path d="M11 21H9.986V22.011H11V21Z" fill="#AE9F8D"/>
<path d="M12.012 5.98901H11V7H12.012V5.98901Z" fill="#AE9F8D"/>
<path d="M23.014 11H22V12.011H23.014V11Z" fill="#AE9F8D"/>
<path d="M18.014 0H17V1.01099H18.014V0Z" fill="#AE9F8D"/>
<path d="M20 6.98901H18.988V8H20V6.98901Z" fill="#AE9F8D"/>
<path d="M15.014 22H14V23.011H15.014V22Z" fill="#AE9F8D"/>
<path d="M5.00001 19H3.986V20.011H5.00001V19Z" fill="#AE9F8D"/>
<path d="M3.00001 3.98901H1.986V5H3.00001V3.98901Z" fill="#AE9F8D"/>
<path d="M15.012 8H14V9.01102H15.012V8Z" fill="#AE9F8D"/>
<path d="M21 19H19.986V20.011H21V19Z" fill="#AE9F8D"/>
<path d="M1.00001 13H-0.0119858V14.011H1.00001V13Z" fill="#AE9F8D"/>
<path d="M2.01402 20.989H1.00001V22H2.01402V20.989Z" fill="#AE9F8D"/>
<path d="M5.00001 7.98901H3.986V9H5.00001V7.98901Z" fill="#AE9F8D"/>
<path d="M11 16.989H9.986V18H11V16.989Z" fill="#AE9F8D"/>
<path d="M17 3.98901H15.988V5H17V3.98901Z" fill="#AE9F8D"/>
</g>
<defs>
<clipPath id="clip0">
<path d="M0 0H24V24H0V0Z" fill="white"/>
</clipPath>
</defs>
</svg>
